X:3
T:Branle coup dd / ds
C:T. Arbeau, Orchsographie
M:C|
L:1/4
K:F
GG BB | AG FF | Bc dB | cc B2 |
GG BB | AG FF | Bc dB | cc B2 |
GG BB | AG FB | BA B2 | GG BB | AG FB | BA B2 |]
